other/achikaps.svg

<?xml version="1.0" encoding="UTF-8" standalone="no"?>
<svg
   xmlns:dc="http://purl.org/dc/elements/1.1/"
   xmlns:cc="http://creativecommons.org/ns#"
   xmlns:rdf="http://www.w3.org/1999/02/22-rdf-syntax-ns#"
   xmlns:svg="http://www.w3.org/2000/svg"
   xmlns="http://www.w3.org/2000/svg"
   xmlns:sodipodi="http://sodipodi.sourceforge.net/DTD/sodipodi-0.dtd"
   xmlns:inkscape="http://www.inkscape.org/namespaces/inkscape"
   viewBox="0 0 48 48"
   version="1.1"
   id="svg2289"
   sodipodi:docname="achikaps.svg"
   inkscape:version="1.0.1 (3bc2e813f5, 2020-09-07)">
  <metadata
     id="metadata2293">
    <rdf:RDF>
      <cc:Work
         rdf:about="">
        <dc:format>image/svg+xml</dc:format>
        <dc:type
           rdf:resource="http://purl.org/dc/dcmitype/StillImage" />
        <dc:title></dc:title>
      </cc:Work>
    </rdf:RDF>
  </metadata>
  <sodipodi:namedview
     pagecolor="#5a5a5a"
     bordercolor="#666666"
     borderopacity="1"
     objecttolerance="10"
     gridtolerance="10"
     guidetolerance="10"
     inkscape:pageopacity="0"
     inkscape:pageshadow="2"
     inkscape:window-width="3840"
     inkscape:window-height="2096"
     id="namedview2291"
     showgrid="false"
     inkscape:zoom="35.823432"
     inkscape:cx="24.003218"
     inkscape:cy="24"
     inkscape:window-x="0"
     inkscape:window-y="27"
     inkscape:window-maximized="1"
     inkscape:current-layer="svg2289"
     inkscape:document-rotation="0"
     showguides="true"
     inkscape:guide-bbox="true"
     inkscape:snap-intersection-paths="true"
     inkscape:snap-smooth-nodes="true"
     inkscape:object-paths="true" />
  <defs
     id="defs2285">
    <style
       id="style2283">.a{fill:none;stroke:#fff;stroke-linecap:round;stroke-linejoin:round;}</style>
  </defs>
  <path
     class="a"
     d="M 40.491114,5.5 H 7.4994923 C 6.3952032,5.5 5.5,6.3954305 5.5,7.5 v 33 c 0,1.104569 0.8952032,2 1.9994923,2 H 40.491114 c 1.104289,0 1.999492,-0.895431 1.999492,-2 v -33 c 0,-1.1045695 -0.895203,-2 -1.999492,-2 z"
     id="path2287"
     style="stroke:#ffffff;stroke-width:1;stroke-linecap:round;stroke-miterlimit:4;stroke-dasharray:none;stroke-opacity:1;stroke-linejoin:round"
     sodipodi:nodetypes="sssssssss" />
  <ellipse
     style="fill:none;stroke:#ffffff;stroke-width:1;stroke-linecap:round;stroke-linejoin:round;stroke-miterlimit:4;stroke-dasharray:none;stroke-opacity:1"
     id="path2897"
     cx="11.881687"
     cy="12.1831"
     rx="2.483954"
     ry="2.4845848" />
  <ellipse
     style="fill:none;stroke:#ffffff;stroke-width:1;stroke-linecap:round;stroke-linejoin:round;stroke-miterlimit:4;stroke-dasharray:none;stroke-opacity:1"
     id="path2899"
     cx="21.312414"
     cy="12.716016"
     rx="1.684098"
     ry="1.6845257" />
  <ellipse
     style="fill:none;stroke:#ffffff;stroke-width:1;stroke-linecap:round;stroke-linejoin:round;stroke-miterlimit:4;stroke-dasharray:none;stroke-opacity:1"
     id="path2899-6"
     cx="31.819613"
     cy="10.5444"
     rx="1.684098"
     ry="1.6845257" />
  <path
     id="path2899-6-3"
     style="fill:none;stroke:#ffffff;stroke-width:1;stroke-linecap:round;stroke-linejoin:round;stroke-miterlimit:4;stroke-dasharray:none;stroke-opacity:1"
     d="m 35.368445,19.452994 c 0.179985,-0.620967 0.83185,-0.946398 1.476535,-0.946398 0.930102,0 1.684097,0.754188 1.684097,1.684526 v 0 c 0,0.930338 -0.753995,1.684526 -1.684097,1.684526 -0.347348,0 -0.569067,-0.02875 -0.852994,-0.228893"
     sodipodi:nodetypes="cssssc" />
  <ellipse
     style="fill:none;stroke:#ffffff;stroke-width:1;stroke-linecap:round;stroke-linejoin:round;stroke-miterlimit:4;stroke-dasharray:none;stroke-opacity:1"
     id="path2899-6-8"
     cx="37.655628"
     cy="31.899887"
     rx="1.684098"
     ry="1.6845257" />
  <path
     id="path2899-6-5"
     style="fill:none;stroke:#ffffff;stroke-width:1;stroke-linecap:round;stroke-linejoin:round;stroke-miterlimit:4;stroke-dasharray:none;stroke-opacity:1"
     d="m 32.727781,28.301185 c 0.06938,0.187314 0.104902,0.385479 0.104902,0.585236 v 0 c 0,0.930338 -0.753997,1.684526 -1.684098,1.684526 -0.930102,0 -1.684099,-0.754188 -1.684099,-1.684526 0,-0.51482 0.235194,-0.922629 0.638772,-1.242129"
     sodipodi:nodetypes="cssssc" />
  <ellipse
     style="fill:none;stroke:#ffffff;stroke-width:1;stroke-linecap:round;stroke-linejoin:round;stroke-miterlimit:4;stroke-dasharray:none;stroke-opacity:1"
     id="path2899-6-6"
     cx="30.739716"
     cy="37.302963"
     rx="1.684098"
     ry="1.6845257" />
  <ellipse
     style="fill:none;stroke:#ffffff;stroke-width:1;stroke-linecap:round;stroke-linejoin:round;stroke-miterlimit:4;stroke-dasharray:none;stroke-opacity:1"
     id="path2899-6-1"
     cx="22.002516"
     cy="38.552914"
     rx="1.684098"
     ry="1.6845257" />
  <ellipse
     style="fill:none;stroke:#ffffff;stroke-width:1;stroke-linecap:round;stroke-linejoin:round;stroke-miterlimit:4;stroke-dasharray:none;stroke-opacity:1"
     id="path2899-6-15"
     cx="13.245239"
     cy="33.561531"
     rx="1.684098"
     ry="1.6845257" />
  <ellipse
     style="fill:none;stroke:#ffffff;stroke-width:1;stroke-linecap:round;stroke-linejoin:round;stroke-miterlimit:4;stroke-dasharray:none;stroke-opacity:1"
     id="path2899-6-9"
     cx="9.1533298"
     cy="23.555744"
     rx="1.684098"
     ry="1.6845257" />
  <path
     style="fill:none;stroke:#ffffff;stroke-width:1;stroke-linecap:round;stroke-linejoin:round;stroke-miterlimit:4;stroke-dasharray:none;stroke-opacity:1"
     d="M 32.427834,8.9738578 33.751366,5.5123283"
     id="path2967"
     sodipodi:nodetypes="cc" />
  <path
     style="fill:none;stroke:#ffffff;stroke-width:1;stroke-linecap:round;stroke-linejoin:round;stroke-miterlimit:4;stroke-dasharray:none;stroke-opacity:1"
     d="m 36.14421,18.652904 -3.468341,-6.65093"
     id="path2969"
     sodipodi:nodetypes="cc" />
  <path
     style="fill:none;stroke:#ffffff;stroke-width:1;stroke-linecap:round;stroke-linejoin:round;stroke-miterlimit:4;stroke-dasharray:none;stroke-opacity:1"
     d="M 38.41254,19.593865 42.5,17.767634"
     id="path2971"
     sodipodi:nodetypes="cc" />
  <path
     style="fill:none;stroke:#ffffff;stroke-width:1;stroke-linecap:round;stroke-linejoin:round;stroke-miterlimit:4;stroke-dasharray:none;stroke-opacity:1"
     d="m 39.175109,32.630137 3.312589,1.675661"
     id="path2973"
     sodipodi:nodetypes="cc" />
  <path
     style="fill:none;stroke:#ffffff;stroke-width:1;stroke-linecap:round;stroke-linejoin:round;stroke-miterlimit:4;stroke-dasharray:none;stroke-opacity:1"
     d="m 36.123997,31.231292 -3.44891,-1.618823"
     id="path2975"
     sodipodi:nodetypes="cc" />
  <path
     style="fill:none;stroke:#ffffff;stroke-width:1;stroke-linecap:round;stroke-linejoin:round;stroke-miterlimit:4;stroke-dasharray:none;stroke-opacity:1"
     d="m 36.290993,32.884909 -4.177936,3.40847"
     id="path2977"
     sodipodi:nodetypes="cc" />
  <path
     style="fill:none;stroke:#ffffff;stroke-width:1;stroke-linecap:round;stroke-linejoin:round;stroke-miterlimit:4;stroke-dasharray:none;stroke-opacity:1"
     d="m 31.520422,38.78891 2.114018,3.708874"
     id="path2979"
     sodipodi:nodetypes="cc" />
  <path
     style="fill:none;stroke:#ffffff;stroke-width:1;stroke-linecap:round;stroke-linejoin:round;stroke-miterlimit:4;stroke-dasharray:none;stroke-opacity:1"
     d="M 23.662926,38.276035 29.09024,37.626081"
     id="path2981"
     sodipodi:nodetypes="cc" />
  <path
     style="fill:none;stroke:#ffffff;stroke-width:1;stroke-linecap:round;stroke-linejoin:round;stroke-miterlimit:4;stroke-dasharray:none;stroke-opacity:1"
     d="m 21.769935,40.228782 -0.02644,2.268983"
     id="path2983"
     sodipodi:nodetypes="cc" />
  <path
     style="fill:none;stroke:#ffffff;stroke-width:1;stroke-linecap:round;stroke-linejoin:round;stroke-miterlimit:4;stroke-dasharray:none;stroke-opacity:1"
     d="m 12.230611,34.914411 -5.5716759,7.40528"
     id="path2985"
     sodipodi:nodetypes="cc" />
  <path
     style="fill:none;stroke:#ffffff;stroke-width:1;stroke-linecap:round;stroke-linejoin:round;stroke-miterlimit:4;stroke-dasharray:none;stroke-opacity:1"
     d="m 22.944473,12.300198 7.2272,-1.39251"
     id="path2987"
     sodipodi:nodetypes="cc" />
  <path
     style="fill:none;stroke:#ffffff;stroke-width:1;stroke-linecap:round;stroke-linejoin:round;stroke-miterlimit:4;stroke-dasharray:none;stroke-opacity:1"
     d="M 19.635428,12.57571 14.356676,12.429145"
     id="path2989"
     sodipodi:nodetypes="cc" />
  <path
     style="fill:none;stroke:#ffffff;stroke-width:1;stroke-linecap:round;stroke-linejoin:round;stroke-miterlimit:4;stroke-dasharray:none;stroke-opacity:1"
     d="M 11.034664,9.8389731 9.3914359,5.5038528"
     id="path2991"
     sodipodi:nodetypes="cc" />
  <path
     style="fill:none;stroke:#ffffff;stroke-width:1;stroke-linecap:round;stroke-linejoin:round;stroke-miterlimit:4;stroke-dasharray:none;stroke-opacity:1"
     d="m 11.19821,28.371384 3.233238,-8.694221 h 2.772709 l 3.424664,8.694221 h -3.389327 l -0.534999,-1.378207 h -1.766874 l -0.555304,1.378207 z"
     id="path2995"
     sodipodi:nodetypes="ccccccccc" />
  <path
     style="fill:none;stroke:#ffffff;stroke-width:1;stroke-linecap:round;stroke-linejoin:round;stroke-miterlimit:4;stroke-dasharray:none;stroke-opacity:1"
     d="m 26.150956,22.042899 c 0,0 -0.901985,-0.54479 -2.602468,-0.610494 -1.700483,-0.0657 -3.829897,1.217798 -3.826999,3.554929 0.0029,2.337131 2.131881,3.38405 4.07748,3.38405 1.945599,0 2.363453,-0.963215 2.363453,-0.963215 z"
     id="path2997"
     sodipodi:nodetypes="czzzcc" />
  <ellipse
     style="fill:none;stroke:#ffffff;stroke-width:1;stroke-linecap:round;stroke-linejoin:round;stroke-miterlimit:4;stroke-dasharray:none;stroke-opacity:1"
     id="path2999"
     cx="23.901348"
     cy="24.937958"
     rx="1.3955427"
     ry="1.2080969" />
  <path
     style="fill:none;stroke:#ffffff;stroke-width:1;stroke-linecap:round;stroke-linejoin:round;stroke-miterlimit:4;stroke-dasharray:none;stroke-opacity:1"
     d="m 29.116239,28.371384 h -2.862935 v -8.793746 h 2.867115 v 2.376618 c 2.382098,-1.207344 3.462108,0.207612 3.606998,1.582015 v 4.835113 h -2.62454 v -4.086835 c -0.307279,-0.388892 -0.708288,-0.3637 -0.979825,0 z"
     id="path3001"
     sodipodi:nodetypes="ccccccccccc" />
  <rect
     style="fill:none;stroke:#ffffff;stroke-width:1;stroke-linecap:round;stroke-linejoin:round;stroke-miterlimit:4;stroke-dasharray:none;stroke-opacity:1"
     id="rect3003"
     width="2.899219"
     height="6.6842623"
     x="33.525982"
     y="21.687122"
     rx="0.63927066"
     ry="0.77880198" />
  <rect
     style="fill:none;stroke:#ffffff;stroke-width:1;stroke-linecap:round;stroke-linejoin:round;stroke-miterlimit:4;stroke-dasharray:none;stroke-opacity:1"
     id="rect3005"
     width="2.890991"
     height="2.2318838"
     x="33.534214"
     y="19.45524"
     rx="0.63927066"
     ry="0.8435272" />
  <path
     style="fill:none;stroke:#ffffff;stroke-width:1;stroke-linecap:round;stroke-linejoin:round;stroke-miterlimit:4;stroke-dasharray:none;stroke-opacity:1"
     d="M 37.470101,30.221546 37.018834,21.861258"
     id="path3029"
     sodipodi:nodetypes="cc" />
  <path
     style="fill:none;stroke:#ffffff;stroke-width:1;stroke-linecap:round;stroke-linejoin:round;stroke-miterlimit:4;stroke-dasharray:none;stroke-opacity:1"
     d="m 20.55779,14.212855 -3.169258,5.921408"
     id="path3031"
     sodipodi:nodetypes="cc" />
  <path
     id="path2899-4"
     style="fill:none;stroke:#ffffff;stroke-width:1;stroke-linecap:round;stroke-linejoin:round;stroke-miterlimit:4;stroke-dasharray:none;stroke-opacity:1"
     d="m 26.263566,19.577636 c 0.115482,-0.832958 0.827419,-1.453137 1.668135,-1.453137 0.930101,0 1.684098,0.754188 1.684098,1.684526 v 0 c 0,0.447807 -0.176643,0.683372 -0.493776,0.999453"
     sodipodi:nodetypes="csssc" />
  <path
     id="path3074"
     style="fill:none;stroke:#ffffff;stroke-width:1;stroke-linecap:round;stroke-linejoin:round;stroke-miterlimit:4;stroke-dasharray:none;stroke-opacity:1"
     d="m 26.252386,19.682143 c 0.0026,-0.03494 0.0064,-0.0698 0.01118,-0.104507"
     sodipodi:nodetypes="cc" />
  <path
     id="path3072"
     style="fill:none;stroke:#ffffff;stroke-width:1;stroke-linecap:round;stroke-linejoin:round;stroke-miterlimit:4;stroke-dasharray:none;stroke-opacity:1"
     d="m 26.253075,19.94472 c -0.0036,-0.04514 -0.0055,-0.09041 -0.0055,-0.135695 0,-0.04234 0.0016,-0.08466 0.0048,-0.126882"
     sodipodi:nodetypes="csc" />
  <path
     style="fill:none;stroke:#ffffff;stroke-width:1;stroke-linecap:round;stroke-linejoin:round;stroke-miterlimit:4;stroke-dasharray:none;stroke-opacity:1"
     d="m 15.910745,23.606471 -0.345657,0.972454 h 0.696463 z"
     id="path3083"
     sodipodi:nodetypes="cccc" />
  <path
     style="fill:none;stroke:#ffffff;stroke-width:1;stroke-linecap:round;stroke-linejoin:round;stroke-miterlimit:4;stroke-dasharray:none;stroke-opacity:1"
     d="M 10.790424,23.161481 13.40024,22.498172"
     id="path3085"
     sodipodi:nodetypes="cc" />
  <path
     style="fill:none;stroke:#ffffff;stroke-width:1;stroke-linecap:round;stroke-linejoin:round;stroke-miterlimit:4;stroke-dasharray:none;stroke-opacity:1"
     d="M 7.5025989,23.234594 5.5067387,22.743902"
     id="path3087"
     sodipodi:nodetypes="cc" />
  <path
     style="fill:none;stroke:#ffffff;stroke-width:1;stroke-linecap:round;stroke-linejoin:round;stroke-miterlimit:4;stroke-dasharray:none;stroke-opacity:1"
     d="m 13.718194,31.944272 1.219427,-4.951095"
     id="path3089"
     sodipodi:nodetypes="cc" />
  <path
     style="fill:none;stroke:#ffffff;stroke-width:1;stroke-linecap:round;stroke-linejoin:round;stroke-miterlimit:4;stroke-dasharray:none;stroke-opacity:1"
     d="m 20.513093,37.774524 -5.818487,-3.34235"
     id="path3091"
     sodipodi:nodetypes="cc" />
  <path
     style="fill:none;stroke:#ffffff;stroke-width:1;stroke-linecap:round;stroke-linejoin:round;stroke-miterlimit:4;stroke-dasharray:none;stroke-opacity:1"
     d="M 26.929042,18.46119 22.498858,13.903618"
     id="path3093"
     sodipodi:nodetypes="cc" />
</svg>

<svg xmlns="http://www.w3.org/2000/svg" viewBox="0 0 48 48"><defs><style>.a{fill:none;stroke:#fff;stroke-linecap:round;stroke-linejoin:round;}.b{fill:#fff;}</style></defs><path class="a" d="M40.49,5.5H7.5a2,2,0,0,0-2,2v33a2,2,0,0,0,2,2h33a2,2,0,0,0,2-2V7.5A2,2,0,0,0,40.49,5.5Z"/><circle class="a" cx="11.88" cy="12.18" r="2.48"/><circle class="a" cx="21.31" cy="12.72" r="1.68"/><circle class="a" cx="31.82" cy="10.54" r="1.68"/><circle class="a" cx="37.66" cy="31.9" r="1.68"/><circle class="a" cx="30.74" cy="37.3" r="1.68"/><circle class="a" cx="22" cy="38.55" r="1.68"/><circle class="a" cx="13.25" cy="33.56" r="1.68"/><circle class="a" cx="9.15" cy="23.56" r="1.68"/><path class="a" d="M32.43,9l1.32-3.46"/><path class="a" d="M36.14,18.65,32.68,12"/><path class="a" d="M38.41,19.59l4.09-1.82"/><path class="a" d="M39.18,32.63l3.31,1.68"/><path class="a" d="M36.12,31.23l-3.44-1.62"/><path class="a" d="M36.29,32.88l-4.18,3.41"/><path class="a" d="M31.52,38.79l2.11,3.71"/><path class="a" d="M23.66,38.28l5.43-.65"/><path class="a" d="M21.77,40.23l0,2.27"/><path class="a" d="M12.23,34.91,6.66,42.32"/><path class="a" d="M22.94,12.3l7.23-1.39"/><path class="a" d="M19.64,12.58l-5.28-.15"/><path class="a" d="M11,9.84,9.39,5.5"/><path class="a" d="M37.47,30.22,37,21.86"/><path class="a" d="M20.56,14.21l-2,3.78"/><path class="a" d="M10.79,23.16l2.61-.66"/><path class="a" d="M7.5,23.23l-2-.49"/><path class="a" d="M13.72,31.94,14.2,30"/><path class="a" d="M20.51,37.77l-5.82-3.34"/><path class="a" d="M26.08,17.58,22.5,13.9"/><line class="a" x1="26.96" y1="19.8" x2="26.96" y2="27.92"/><path class="a" d="M27,24.57a2,2,0,0,1,2-2h0a2,2,0,0,1,2,2v3.35"/><circle class="b" cx="33.09" cy="20.06" r="0.75"/><line class="a" x1="33.09" y1="22.54" x2="33.09" y2="27.92"/><path class="a" d="M24.85,26.9a2,2,0,0,1-1.76,1h0a2,2,0,0,1-2-2V24.57a2,2,0,0,1,2-2h0a2,2,0,0,1,1.76,1"/><line class="a" x1="14.2" y1="27.89" x2="16.89" y2="19.8"/><line class="a" x1="19.48" y1="27.92" x2="16.89" y2="19.8"/><line class="a" x1="18.61" y1="25.2" x2="15.1" y2="25.2"/><circle class="a" cx="36.81" cy="20.2" r="1.68"/></svg>
